!!!COM: Anonymous
!!!OTL@@POL: Śpijże dziecię malusieńkie
!!!TXO: Polish
!!!ODT: 
!!!GTL: Hymnbook L 1642(a)
!!!ARL: Biblioteka Diecezjalna w Sandomierzu 
!!!voices:	3
**kern	**text	**kern	**text	**kern	**text
*staff3	*staff3	*staff2	*staff2	*staff1	*staff1
*I"Basso	*	*I"Canto II	*	*I"Canto I	*
=1-	=1-	=1-	=1-	=1-	=1-
*clefF4	*	*clefG2	*	*clefG2	*
*k[b-]	*	*k[b-]	*	*k[b-]	*
*M3/1	*	*M3/1	*	*M3/1	*
0G	Śpij-	0b-	Śpij-	0dd	Śpij-
1G	-że	1g	-że	1b-	-że
=2	=2	=2	=2	=2	=2
0D	dzie-	0f#	dzie-	0a	dzie-
1D	-cię	1f#	-cię	1a	-cię
=3	=3	=3	=3	=3	=3
1E-	ma-	1g	ma-	1b-	ma-
1BB-	-lu-	1b-	-lu-	1dd	-lu-
1F	-sień-	1a	-sień-	1cc	-sień-
=4	=4	=4	=4	=4	=4
0.BB-	-kie	0.b-	-kie	0.dd	-kie
=5	=5	=5	=5	=5	=5
1.BB-	li	1.b-	li	1.dd	li
2BB-/	li	2b-\	li	2dd\	li
1BB-	li	1b-	li	1dd	li
=6	=6	=6	=6	=6	=6
1F	pię-	1a	pię-	1cc	pię-
1F	-kniu-	1a	-kniu-	1cc	-kniu-
1G	-sień-	1g	-sień-	1b-	-sień-
=7	=7	=7	=7	=7	=7
0.D	-kie	0.f#	-kie	0.a	-kie
=8	=8	=8	=8	=8	=8
1.BB-	li	1.b-	li	1.dd	li
2BB-/	li	2b-\	li	2dd\	li
1FF	li	1a	li	1cc	li
=9	=9	=9	=9	=9	=9
1GG	pię-	1g	pię-	1b-	pię-
1GG	-kniu-	1g	-kniu-	1b-	-kniu-
1D	-sień-	1f#	-sień-	1a	-sień-
=10	=10	=10	=10	=10	=10
0.GG	-kie	0.g	-kie	0.g	-kie
=11	=11	=11	=11	=11	=11
1G	Śpij-	1b-	Śpij-	1dd	Śpij-
1G	-że	1b-	-że	1dd	-że
1D	pa-	1b-	pa-	1dd	pa-
=12	=12	=12	=12	=12	=12
0E-	-cho-	0g	-cho-	0b-	-cho-
1BB-	-lę	1g	-lę	1b-	-lę
=13	=13	=13	=13	=13	=13
0F	na-	0a	na-	0cc	na-
1F	-do-	1a	-do-	1cc	-do-
=14	=14	=14	=14	=14	=14
0.BB-	-bne	0.b-	-bne	0.dd	-bne
=15	=15	=15	=15	=15	=15
1BB-	nad	1b-	nad	1dd	nad
1BB-	wszy-	1b-	wszy-	1dd	wszy-
1FF	-stkie	1a	-stkie	1cc	-stkie
=16	=16	=16	=16	=16	=16
0GG	sy-	0g	sy-	0b-	sy-
1C	-ny	1g	-ny	1cc	-ny
=17	=17	=17	=17	=17	=17
0D	oz-	0f#	oz-	0a	oz-
1D	-do-	1f#	-do-	1a	-do-
=18	=18	=18	=18	=18	=18
0.GG	-bne	0.g	-bne	0.g	-bne
=19	=19	=19	=19	=19	=19
0D	Śpie-	0a	Śpie-	0dd	Śpie-
1G	-waj	1b-	-waj	1dd	-waj
=20	=20	=20	=20	=20	=20
0F	nie-	0cc	nie-	0ff	nie-
1F	-bo	1cc	-bo	1ff	-bo
=21	=21	=21	=21	=21	=21
1D	z͜ we-	1dd	z͜ we-	1ff	z͜ we-
1E-	-so-	1b-	-so-	1ee-	-so-
1C	-ło-	1cc	-ło-	1ee-	-ło-
=22	=22	=22	=22	=22	=22
0.BB-	-scią	0.b-	-scią	0.dd	-scią
=23	=23	=23	=23	=23	=23
1BB-	Pa-	1b-	Pa-	1dd	Pa-
1BB-	-nu	1b-	-nu	1dd	-nu
1BB-	swe-	1b-	swe-	1dd	swe-
=24	=24	=24	=24	=24	=24
0F	-mu	0a	-mu	0cc	-mu
1G	i	1g	i	1b-	i
=25	=25	=25	=25	=25	=25
1C	z͜ ra-	0a	z͜ ra-	0cc	z͜ ra-
0D	-do-	.	.	.	.
.	.	1f#	-do-	1a	-do-
=26	=26	=26	=26	=26	=26
0.GG	-ścią	0.g	-ścią	0.b-	-ścią
=27!|:	=27!|:	=27!|:	=27!|:	=27!|:	=27!|:
0G	Li-	1g	Li-	2g/	Li-
.	.	.	.	2a/	.
.	.	1a	.	2b-\	.
.	.	.	.	2cc\	.
1D	-laj	1b-	-laj	1dd	-laj
=28	=28	=28	=28	=28	=28
0E-	dzie-	0g	dzie-	0b-	dzie-
1E-	-cię	1g	-cię	1b-	-cię
=29	=29	=29	=29	=29	=29
0E-i	li-	2g/	li-	2g/	li-
.	.	2f/	.	2a/	.
.	.	2g/	.	2b-\	.
.	.	2a/	.	2cc\	.
1BB-	-laj	1b-	-laj	1dd	-laj
=30	=30	=30	=30	=30	=30
0F	świę-	0a	świę-	0cc	świę-
1F	-te	1a	-te	1cc	-te
=31	=31	=31	=31	=31	=31
1F	pie-	1a	pie-	1cc	pie-
1F	-kło	1a	-kło	1cc	-kło
1D	się	1b-	się	1dd	się
=32	=32	=32	=32	=32	=32
0G	lę-	0g	lę-	0b-	lę-
1E-	-ka	1b-	-ka	1ee-	-ka
=33	=33	=33	=33	=33	=33
1C	prze-	1a	prze-	1ee-i	prze-
0D	-klę-	0f#	-klę-	0dd	-klę-
=34	=34	=34	=34	=34	=34
0.GG	-te.	0.g	-te.	0.bni	-te.
==:|!	==:|!	==:|!	==:|!	==:|!	==:|!
*-	*-	*-	*-	*-	*-
!!!GTL: Hymnbook L 1642(a)
!!!EFL: 19/34
!!!YEM: Creative Commons CC/BY/NC/SA 4.0
!!!ENC: Marcin Konik
!!!END: 2015-01-12
!!!EED: Marcin Konik
!!!EEV: 
!!!ONB: Translated from MusicXML and edited by Marcin Konik
!!!CharacterEncoding: utf-8
!!!RDF**kern: i=editorial accidental
!!muse2ps: z14jc180F
!!title: @{OTL}, @{GTL}: @{pag}, ed. @{ENC}
